src/assets/svgs/feedback-icon.svg

<svg width="60" height="61" viewBox="0 0 60 61" fill="none" xmlns="http://www.w3.org/2000/svg">
<path d="M32.6972 15.407L35.361 23.7004C35.583 24.3728 36.1855 24.8211 36.8831 24.8211H45.5087C47.0626 24.8211 47.6968 26.8064 46.4601 27.735L39.4835 32.8584C38.9127 33.2746 38.6907 33.9791 38.9127 34.6515L41.5765 42.945C42.0522 44.4179 40.3714 45.6667 39.1347 44.7381L32.1581 39.6148C31.5873 39.1985 30.8579 39.1985 30.2871 39.6148L23.3105 44.7381C22.0738 45.6667 20.3931 44.4179 20.8687 42.945L23.5325 34.6515C23.7545 33.9791 23.5325 33.2746 22.9617 32.8584L15.9851 27.735C14.7484 26.8064 15.3826 24.8211 16.9365 24.8211H25.5621C26.2597 24.8211 26.8622 24.3728 27.0842 23.7004L29.748 15.407C30.2237 13.934 32.3167 13.934 32.7923 15.407H32.6972Z" stroke="#00D0C6" stroke-width="3.5" stroke-miterlimit="10"/>
<path d="M30.0707 58.3846C45.5738 58.3846 58.1415 45.7625 58.1415 30.1923C58.1415 14.6221 45.5738 2 30.0707 2C14.5677 2 2 14.6221 2 30.1923C2 45.7625 14.5677 58.3846 30.0707 58.3846Z" stroke="#00D0C6" stroke-width="3.5" stroke-miterlimit="10"/>
</svg>

<svg xmlns="http://www.w3.org/2000/svg" width="60" height="61" fill="none" viewBox="0 0 60 61"><path stroke="#00D0C6" stroke-miterlimit="10" stroke-width="3.5" d="m32.697 15.407 2.664 8.293a1.6 1.6 0 0 0 1.522 1.121h8.626c1.554 0 2.188 1.985.951 2.914l-6.977 5.123a1.57 1.57 0 0 0-.57 1.794l2.664 8.293c.475 1.473-1.206 2.722-2.442 1.793l-6.977-5.123a1.56 1.56 0 0 0-1.87 0l-6.977 5.123c-1.237.929-2.918-.32-2.442-1.793l2.663-8.294c.223-.672 0-1.376-.57-1.793l-6.977-5.123c-1.237-.929-.602-2.914.951-2.914h8.626a1.6 1.6 0 0 0 1.522-1.12l2.664-8.294c.476-1.473 2.569-1.473 3.044 0z"/><path stroke="#00D0C6" stroke-miterlimit="10" stroke-width="3.5" d="M30.07 58.385c15.504 0 28.072-12.622 28.072-28.193C58.142 14.622 45.574 2 30.07 2S2 14.622 2 30.192s12.568 28.193 28.07 28.193Z"/></svg>
